X: 1710
T: Sen de mi Hâlâ...
C: Udî Hasan Bey
O: Turkey
F: http://compmusic.upf.edu/node/140
N: isfahan--sarki--agiraksak--sen_de_mi--udi_hasan
N: makam= isfahan
N: form= sarki
N: usul= agiraksak = 9/4
M: 9/4
L: 1/16
K: C _2/4B   
Q: 1/4=66
%%MIDI tuningsystem comma53
z8 z2d^3/4c =B2c2 d8 e3g f3e e3d  | \
w:  Sen  *  *  de  mi  hâ  | 
d2cd c2B4d^3/4c =B2c2 d4 efed c4 d4 ^3/4f2ed  | 
w:  *  *  *  *  *  lâ  *  *  e sîr_ *  *  *  *  i   | 
d3e dcBc d2d2 {e}d2e2 ^3/4f2g2 a2fa g6=fe e3d  | \
w:  *  SAZ *  *  *  *  *  zülf_ *  *  i  yâr  *  *  *  *  ol  | 
edcd c2B4^3/4fg a2gf f2ef g2ed d6e=f eddc  | 
w:  *  *  *  *  *  *  mak *  *  *  *  *  *  *  *  ta *  sın   SAZ  | 
d3e dcBc d2d4a2 ag2f e2g2 gffe d2e2 d2e^2/4f  | 
w:  *  *  *  *  *  *  *  Us lan  ey  *  *  *  *  dil   | 
g2fe d2c2 B2e2 d2dc c3B B2BA A8 d4  | \
w:  *  *  *  *  *  *  us *  lan  *  ar *  *  *  *  tık   | 
c2{e}dc BAG2 z2AB A2B2 c2d2 e2ce d3c c3B B2AB  | 
w:  *  *  *  *  *  *  *  ih *  *  ti yâr  *  *  *  *  ol  | 
c2{e}dc BAG4e2 d2c2 B2AB c2{c}BA A6ef eddc  | 
w:  *  *  *  *  *  *  *  mak *  *  *  *  *  *  *  ta *  sın   SAZ  | 
d3e dcBc d2d4a2 ag2f e2g2 gffe d2e2 d2e^2/4f  | 
w:  *  *  *  *  *  *  *  Us lan  ey  *  *  *  *  dil   | 
g2fe d2c2 B2e2 d2dc c3B B2BA A8 d4  | \
w:  *  *  *  *  *  *  us *  lan  *  ar *  *  *  *  tık   | 
c2{e}dc BAG2 z2AB A2B2 c2d2 e2ce d3c c3B B2AB  | 
w:  *  *  *  *  *  *  *  ih *  *  ti yâr  *  *  *  *  ol  | 
c2{e}dc BAG4e2 d2c2 B2AB c2BA A6c_3/4d cBAB  | 
w:  *  *  *  *  *  *  *  mak *  *  *  *  *  *  ta *  sın   SAZ  | 
c3_3/4d cBAB c2c4d2 d2c2 c2B2 A3B c2d2 e2f2  | \
w:  *  *  *  *  *  *  *  Bil mi yor *  *  *  sun   | 
gfe_3/4d c2B2 z2B4d2 c3B B3A A6=d2 d^3/4c=Bc  | 
w:  *  *  *  *  *  *  ken di ni  *  *  *  zâr_  | 
d8-d2de d2e2 ^3/4f2g2 a2fa g6=fe e3d  | \
w:  *  ü  *  *  ni zâr  *  *  *  *  ol  | 
edcd c2B4^3/4fg a2gf f2ef g2ed d6e=f eddc  | 
w:  *  *  *  *  *  *  mak *  *  *  *  *  *  *  *  ta *  sın   SAZ  | 
d3e dcBc d2d4a2 ag2f e2g2 gffe d2e2 d2e^2/4f  | 
w:  *  *  *  *  *  *  *  Us lan  ey  *  *  *  *  dil   | 
g2fe d2c2 B2e2 d2dc c3B B2BA A8 d4  | \
w:  *  *  *  *  *  *  us *  lan  *  ar *  *  *  *  tık   | 
c2{e}dc BAG2 z2AB A2B2 c2d2 e2ce d3c c3B B2AB  | 
w:  *  *  *  *  *  *  *  ih *  *  ti yâr  *  *  *  *  ol  | 
c2{e}dc BAG4e2 d2c2 B2AB c2{c}BA A6ef eddc  | 
w:  *  *  *  *  *  *  *  mak *  *  *  *  *  *  *  ta *  sın   SAZ  | 
d3e dcBc d2d4a2 ag2f e2g2 gffe d2e2 d2e^2/4f  | 
w:  *  *  *  *  *  *  *  Us lan  ey  *  *  *  *  dil   | 
g2fe d2c2 B2e2 d2dc c3B B2BA A8 d4  | \
w:  *  *  *  *  *  *  us *  lan  *  ar *  *  *  *  tık   | 
c2{e}dc BAG2 z2AB A2B2 c2d2 e2ce d3c c3B B2AB  | 
w:  *  *  *  *  *  *  *  ih *  *  ti yâr  *  *  *  *  ol  | 
c2{e}dc BAG4e2 d2c2 B2AB c2BA A6|
w:  *  *  *  *  *  *  *  mak *  *  *  *  *  *  ta *  sın    | 


